svgs/sharp-light/diagram-next.svg

<svg xmlns="http://www.w3.org/2000/svg" viewBox="0 0 512 512"><!--! Font Awesome Pro 6.6.0 by @fontawesome - https://fontawesome.com License - https://fontawesome.com/license (Commercial License) Copyright 2024 Fonticons, Inc. --><path d="M480 192l-208 0-32 0L32 192 32 64l448 0 0 128zM272 224l208 0 32 0 0-32 0-128 0-32-32 0L32 32 0 32 0 64 0 192l0 32 32 0 208 0 0 105.4-36.7-36.7L192 281.4 169.4 304l11.3 11.3 64 64L256 390.6l11.3-11.3 64-64L342.6 304 320 281.4l-11.3 11.3L272 329.4 272 224zM512 480l0-16 0-160 0-16-16 0-96 0-16 0 0 32 16 0 80 0 0 128L32 448l0-128 80 0 16 0 0-32-16 0-96 0L0 288l0 16L0 464l0 16 16 0 480 0 16 0z"/></svg>

<svg xmlns="http://www.w3.org/2000/svg" viewBox="0 0 512 512"><!--! Font Awesome Pro 6.4.0 by @fontawesome - https://fontawesome.com License - https://fontawesome.com/license (Commercial License) Copyright 2023 Fonticons, Inc. --><path d="M480 192l-208 0H240L32 192 32 64l448 0V192zM272 224H480h32V192 64 32H480 32 0V64 192v32H32 240V329.4l-36.7-36.7L192 281.4 169.4 304l11.3 11.3 64 64L256 390.6l11.3-11.3 64-64L342.6 304 320 281.4l-11.3 11.3L272 329.4V224zM512 480V464 304 288H496 400 384v32h16 80V448L32 448l0-128h80 16V288H112 16 0v16V464v16H16l480 0h16z"/></svg>
